X:2623
L:1/8
M:2/2
K:A
 E2 | ABcd e2 (cf) | ecaf ecBc | ABcd e2 (cA) | EcBc A2 :| e2 | abag f2 (ga) | bfbf agfe | 
 abag fedc | dcBA B2 | abag f2 (ga) | bfbf agfe | agfe dcBA | EcBc A2 ||

